usr/share/icons/biglinux-icons-material/22/actions/format-precision-more.svg

<svg xmlns="http://www.w3.org/2000/svg" viewBox="0 0 22 22">
  <defs id="defs3051">
    <style type="text/css" id="current-color-scheme">
      .ColorScheme-Text {
        color:#dedede;
      }
      .ColorScheme-Highlight {
        color:#3daee9;
      }
      </style>
  </defs>
 <path 
     style="fill:currentColor;fill-opacity:1;stroke:none" 
     d="M 7.5 3 C 5.567 3 4 4.7909 4 7 L 4 8 L 4 10 C 4 12.2091 5.567 14 7.5 14 C 9.433 14 11 12.2091 11 10 L 11 8 L 11 7 C 11 4.7909 9.433 3 7.5 3 z M 15.5 3 C 13.567 3 12 4.7909 12 7 L 12 8 L 12 10 C 12 12.2091 13.567 14 15.5 14 C 17.433 14 19 12.2091 19 10 L 19 8 L 19 7 C 19 4.7909 17.433 3 15.5 3 z M 7.5 4 C 8.88071 4 10 5.3432 10 7 L 10 10 C 10 11.6569 8.88071 13 7.5 13 C 6.11929 13 5 11.6569 5 10 L 5 7 C 5 5.3432 6.11929 4 7.5 4 z M 15.5 4 C 16.88071 4 18 5.3431 18 7 L 18 10 C 18 11.6569 16.88071 13 15.5 13 C 14.11929 13 13 11.6569 13 10 L 13 7 C 13 5.3431 14.11929 4 15.5 4 z M 3 13 L 3 14 L 4 14 L 4 13 L 3 13 z "
     class="ColorScheme-Text"
     />
 <path 
     style="fill:currentColor;fill-opacity:1;stroke:none" 
     d="M 15 15 L 15 17 L 13 17 L 13 18 L 15 18 L 15 20 L 16 20 L 16 18 L 18 18 L 18 17 L 16 17 L 16 15 L 15 15 z "
     class="ColorScheme-Highlight"
     />
</svg>

<svg xmlns="http://www.w3.org/2000/svg" viewBox="0 0 22 22"><path d="M7.5 3C5.567 3 4 4.79 4 7v3c0 2.21 1.567 4 3.5 4s3.5-1.79 3.5-4V7c0-2.21-1.567-4-3.5-4zm8 0C13.567 3 12 4.79 12 7v3c0 2.21 1.567 4 3.5 4s3.5-1.79 3.5-4V7c0-2.21-1.567-4-3.5-4zm-8 1C8.88 4 10 5.343 10 7v3c0 1.657-1.12 3-2.5 3S5 11.657 5 10V7c0-1.657 1.12-3 2.5-3zm8 0C16.88 4 18 5.343 18 7v3c0 1.657-1.12 3-2.5 3S13 11.657 13 10V7c0-1.657 1.12-3 2.5-3zM3 13v1h1v-1H3z" style="fill:currentColor;fill-opacity:1;stroke:none;color:#dedede"/><path d="M15 15v2h-2v1h2v2h1v-2h2v-1h-2v-2h-1z" style="fill:currentColor;fill-opacity:1;stroke:none;color:#3daee9"/></svg>
